X:1
T:# / 4 mahler: die zwei blauen augen
%%score 1 { ( 2 4 5 ) | ( 3 6 ) }
L:1/8
Q:1/4=69
M:4/4
K:G
V:1 treble-8 nm="Midi_72"
V:2 treble nm="Midi_1"
V:4 treble 
V:5 treble 
V:3 bass 
V:6 bass 
V:1
"^Alla Marcia""^Durchaus mit geheimnissvoll schwermiithigem Ausdruck (nicht schleppen)"!pp! E"^Die zwei blauen Augen""^(""^aus:""^Lieder eines fahrenden Gesellen)"F | %1
w: Die zwei|
 G>G GG z GEF | G2 z2 z"^Gustav Mahler""^1860 - 1911" GFG | A2 AA AGFG | A4 z2 (GA) | %5
w: blau- en Au- gen von mei- nem|Schatz, die ha- ben|mich in die wei- te Welt ge-|schickt. Da *|
!<(! B2 B2 B2 B2!<)! |!>(! (B3 !courtesy!=c) B2 B2!>)! |!>(! (Bg) g2!>)!!pp! (gf) (fe) | %8
w: musst ich Ab- schied|neh- * men vom|al- * ler- lieb * sten *|
[M:5/4] e4 z2"^espress." z2 (EF) |[M:4/4] G>G G2 z !^!GEF x2 | %10
w: Platz! O *|Au- gen blau wa- rum habt|
[M:5/4][K:treble-8] G>G G>G G2 z2 (FG) |[M:4/4]!<(! A3 A (AB/A/ G)A!<)! x2 | %12
w: ihr mich an- ge- blickt!? Nun *|hat ich e * * * wig|
!>(! (!^!c2 !^!B4 !^!A2-) x4!>)! | A2 (3(G=FE) (G2 ^F2) x4 |[M:5/4][K:treble-8] E2 z2 z4 z2 | %15
w: Leid * *|* und * * Grä- *|men!|
[M:4/4] z8 x2 | z8 x2 |[K:C] z4 z2!p! CD | E3 E EE z D x3 | %19
w: ||Ich bin|aus- ge- gan- gen in|
[M:4/4][K:treble-8] _E>E E2 z2!pp! (CD) | !courtesy!=E3 E E2 (_AG) | F6!>(! _AG | %22
w: stil- ler Nacht, in *|stil- ler Nacht wohl *|ü- ber die|
 F2 (_AG)!>)! (F2 AG) | E2 z2 z4 | z8 | G2 G2 (Gc)cc | _B3 _A G2 (G_d) | c4 z2 (!^!c!courtesy!=B) | %28
w: dunk- le * Hai * *|de;||hat mir Nie * mand A-|de ge- sagt. A *|de! A *|
 _B2 (!^!BA)"^," _A2 AG | F6 ((_AG) | !courtesy!=E2 (_AG) (F2 A)G) | E2 z2 z4 | z8 | z8 | z8 | z8 | %36
w: de! A- * de! Mein Ge-|sell' war *|Lieb' und * Lei * *|de!|||||
 z8 | z8 | z8 | z8 | z4 z2"^Leise, bis zum Schluss" CF | F3 F F2 (GA) | (Ac) c2 c2 (cf) | %43
w: ||||Auf der|Stra- sse steht ein *|Lin * den- baum, da *|
!pp! f2 ff f (g/f/) ef | c3 A c2 z2 | z4 F2 FG | (Ac) c2 c2 c2 | (_Bd)cB AGFG | (Ac) c2 c2 z2 | %49
w: hab' ich zum er- sten * Mal im|Schlaf ge- ruht!|Un- ter dem|Lin * den- baum! Der|hat * sei- ne Blü- then ü- ber|mich * ge- schneit,|
 z8 | z4 z2 c2 | c2 c2 (cf)ff | _e3 _d c2 (c_g) | f6 (f"^,"!courtesy!=e) | %54
w: |da|wusst' ich nicht * ~wie das|Le- ben thut, war *|Al- les, *|
 _e2 (e!courtesy!=d) _d2 (dc) | _B4 z2 (_dc) | A2 (_dc) _B2 (dc) | A4 z4 | A4 A2 z2 | A4 A2 z2 | %60
w: Al- les * wie- der *|gut! Ach, *|Al- les * wie- der *|gut!|Al- les!|Al- les!|
 F4 z2 D2 | F4 z2 C2 | A,4 z2 C2 | A,4 z4 | z8 | z8 | z8 | !fermata!z8 |] x8 |] %69
w: Lieb' und|Leid, und|Welt, und|Traum!||||||
V:2
!pp! (.[G,E].[B,F]) | (.[B,EG]>.[B,EG] .[B,EG]2) z2 (.[CE].[B,F]) | %2
 (.[B,EG]2 .[B,EG]>.[B,EG] .[B,EG]2) z2 | (.[DFA]2 .[DFA]>.[DFA] .[DFA]>.[DEG].[DF]>.[DEG]) | %4
 (.[DFA]2 .[DFA]>.[DFA] .[DFA]2)!<(! ([EG][FA]) | B2 (.B2 .B2 .B2)!<)! | B4- B z B2 | %7
 B2 [Bg]2 ([Bg][Af]) ([Af][Ge]) |[M:4/4] [GBe]4 z2 z2 x2 | %9
[M:4/4] ([G,E].[B,F]) (.[B,EG]>.[B,EG] .[B,EG]2) z2 x2 | (.[CE].[B,F]) x8 | %11
[M:5/4] (.[B,EG]2 .[B,EG]>.[B,EG] .[B,EG]2) z2!<(! (F[EG]) | %12
[M:5/4] [DFA]3 [DFA] ([FA]2!<)! [EG][FA]) ([Ac]2 x2 | [FB]4 (([=FA]2 [^FA]2 (G4))) | %14
 [^D!courtesy!^F]2) x8 |[M:5/4] [G,B,E]2 z2 z4 (.[G,E].[B,F]) | %16
[M:5/4]!ppp! (.[B,EG]>.[B,EG] .[B,EG]2) z2 (.[CE].[B,F]) [B,EG]2 | %17
 (.[B,EG]>.[B,EG] .[B,EG]2) z2 x2 | z4 z2 .[E,C].[G,D] (!tenuto![G,CE]3 | %19
 .[G,CE] [G,CE]2) (.[_A,C].[G,D]) x3 |[M:4/4] [G,C_E]>[G,CE] [G,CE]2 z2!<(! .[_A,C].[G,D] | %21
 [G,C!courtesy!=E]3 [G,CE] [G,CE]2 (!^![=F_A][EG] | [D=F]6)!<)! ([F_A][EG] | (=F8) | %24
 .!courtesy!=E>).E .E2 z2!p! (.[_A,C].[G,D]) | [G,C_E]3 [G,CE] [G,CE]2 (.[!courtesy!=E,C].[G,D]) | %26
 ([C!courtesy!=E]2 [_D!courtesy!=F]2 [CE][G,=D] (3[!courtesy!=E,C][G,D][CE] | [_D=F]6) (G_d) | %28
 (.[!courtesy!=EGc]4 .[_EG!courtesy!=B]4) | (!tenuto![D=F_B]3 .[^CFA] .[=CF_A]2) ([FA][_EG] | %30
"^m.d." [_D=F]6) ([F_A]G | !courtesy!=E2) !^!_AG =F2 !^!AG |"^(ohne Nachschläge)" [CE]8- | %33
 [CE]6 .[_A,C].[G,D] | ([G,C_E]>.[G,CE] .[G,CE]2) z2 (.[A,C].[G,D]) | %35
 ([G,C!courtesy!=E]3 .[G,CE] .[G,CE]2) z2 | z4 [G,C_E]>[G,CE] [G,CE]2 | z8 | z8 | z2 .C2 .C2 .C2 | %40
"^sempre" C2!pp! C2 C2 C2 | [A,C]2 [A,C]2 [A,C]2 ([A,C]=F) | [A,C=F]3 [A,CF] [A,CF]2 ([FG]A) | %43
 ([C=FA]c) [FAc]2 [FAc]2 [FAc]2 | ([Ac=f]2 .[Acf].[Acf]) (fg/f/ .[Ace].[Acf]) | %45
 [=FAc]3 [CFA] [FAc]2!ppp! ([FAc]2 | [Ac=f]2 .[Acf].[cfg]) ([cfa]2 g/f/e/d/) | %47
 ([=FAc]3 [CFA] [FAc]2) [Ac]2- | ([G_B][Bd][Ac][GB] [=FA][EG][DF][EG]) | %49
 ([=FA][Ac][=fa]>[Ac] [fa]2) ([Ac]2 | [=FAc][G_B][Bd][GB] [FA][EG][DF][EG]) | %51
 [=F_A]2 ([CFA]>C) [CFA]2 (.[_DF].[CG]) | ([=F!courtesy!=A]2 [CG]2 [A,F][CG] (3[FA][G_B][Ac]) | %53
 [_G_B]6 c_g | ([Ac=f]3 .[_Ac!courtesy!=e] [Gc_e]2) z2 | %55
 (.[G_B_e]2 [GBe][^FB!courtesy!=d]) (.[=FB_d]2 [_DBd][!courtesy!=Ac]) | %56
 ([G_B][B!courtesy!=d][Ac][GB]) [=FA][!courtesy!=EG][!courtesy!=DF][EG] | A2 (_dc) _B2 (dc | %58
 [=FA]) z/ ([Ac]/ [=fa]3"^poco rit." [ec'][df][_dg]) | ([ca]3 [d=f]/_B/ [Ac][=Fd][DB][Ec]) | %60
 ([=FA][Ec] [FA]4) (!^![_B,D]2 | [C=F]6) ([_B,D]2 |"^morendo" [C=F]6) [G,C]2 | z4 z2 C2 | x4 x4 | %65
 x4 x4 | x4 z2 (.[_d=f]!ppp!.[cg]) | (.[c=f_a]>.[cfa] .[cfa]2) z2 (.[_df].[cg]) |] %68
 [c=f_a]2 [cfa]>[cfa] !fermata![cfa]2 z2 |] %69
V:3
 z2 | [E,,,E,,]2 [B,,E,G,]2 z4 | [E,,,E,,]2 [B,,E,G,]>[B,,E,G,] [B,,E,G,]2 z2 | %3
 [D,,,D,,]2 (.[D,F,A,]>.[D,F,A,] [D,F,A,]2) z2 | [D,,,D,,]2 [D,F,A,]2 z4 | %5
 [G,,,G,,]2 [D,G,B,]2 G,,2 [E,G,B,]2 |!>(! [B,,,B,,]2 [B,,F,A,]>[B,,F,A,] [B,,F,A,]!>)! z z2 | %7
 [E,,,E,,]2 [G,,,G,,][A,,,A,,] [B,,,B,,]2 B,,,2 |[M:4/4] E,,2 (.[B,EG]>.[B,EG] .[B,EG]2) z2 z2 | %9
[M:4/4] [E,,,E,,]2 [B,,E,G,]2 z4 x2 | x10 | %11
[M:5/4] [E,,,E,,]2 (.[B,,E,G,]>.[B,,E,G,] .[B,,E,G,]2) z2 z2 | %12
[M:5/4] D,,2 [D,A,C]2 D,,2 [D,A,C]2 x4 |!>(! [G,,,G,,]2 [D,G,B,]2 [A,,,A,,]2 [C,=F,A,]2 x4 | %14
 (.[B,,,B,,]2 .[C,,C,]2 .[A,,,A,,]2!>)! .[B,,,B,,]2) x2 | %15
[M:5/4]!p! [E,,,E,,]2 (.[B,,E,G,]>.[B,,E,G,] .[B,,E,G,]2) z2 z2 | %16
[M:5/4] [E,,,E,,]2 [B,,E,G,]2 z4 x2 | [E,,,E,,]2 (.[B,,E,G,]>.[B,,E,G,] .[B,,E,G,]2) z2 | %18
!pp!"^immer\nmit Ped." (.[C,,C,]2 .[G,,,G,,]2 .[C,,C,]2 .[G,,,G,,]2) x3 | %19
 [C,,C,]2 [G,,,G,,]2 .[C,,C,]2 [G,,,G,,]2 |[M:4/4] [C,,C,]2 [G,,,G,,]2 [C,,C,]2!pp! [G,,,G,,]2 | %21
 [C,,C,]2 [G,,,G,,]2 [C,,C,]2 [G,,,G,,]2 | z3/2 G,/!<(! (G,>_A,)!<)! A,4- | %23
!>(! (!courtesy!_A,2!>)! =A,2 _B,2 T=B,2 |{B,)} ([G,C]>[G,C] [G,C]2) [C,,C,]2 [G,,,G,,]2 | %25
 [C,,C,]2 [G,,,G,,]2 [C,,C,]2!pp! [G,,,G,,]2 | [C,,C,]2 [G,,,G,,]2 [C,,C,]2 [G,,,G,,]2 | %27
 [C,,C,]2 [G,,,G,,]2 [C,,C,]2 [G,,,G,,]2 | [C,,C,]2 [G,,,G,,]2 [C,,C,]2 [G,,,G,,]2 | %29
 [C,,C,]2 [G,,,G,,]2 [C,,C,]2 [G,,,G,,]2 | z2 (_A,=A, _B,2 =B,2 | C4) _D2 T!courtesy!=B,2 | %32
{B,} .G,2 (T_A,2 .G,2) TA,2 | .G,2 (T_A,2 .G,2) [G,,,G,,]2 | %34
"^morendo" .[C,,C,]2 [G,,,G,,]2 [C,,C,]2 [G,,,G,,]2 | %35
 !tenuto![C,,C,]2 [G,,,G,,]2 [C,,C,]2 [G,,,G,,]2 | [C,,C,]2 [G,,,G,,]2 [C,,C,]2 [G,,,G,,]2 | %37
 [C,,C,]2 z2 [G,,,G,,]2 z2 | ([C,,C,] .C,2 .C,2 .C,2 C,- | C,) C,2 C,2 C,2 C,- | %40
 =F, C,2 C,2 C,=F,,C, | (.=F,,.C,.=F,C, .F,,.C,.F,.C,) | (.=F,,.C,.=F,.C, .F,,.C,.F,.C,) | %43
 (.=F,,.C,.=F,.C, x2 !^!G,2) | !^!A,2 !^!G,2 !^!=F,2 !^!G,2 | A,2 G,/=F,/E,/D,/ C,C,F,G, | %46
 [=F,,A,]C,G,C, [F,,=F,]C,G,C, | ([=F,,A,]C, G,/=F,/E,/D,/) [F,,C,](F,G,A,) | %48
 (=F,,C,G,C, F,,C,_B,C,) | =F,,C,A,C, F,,C,A,C, | (=F,,C,G,C, F,,C,_B,C,) | %51
 (=F,,C,=F,C,) (F,,C,F,C,) | (=F,,C,=F,C, F,,C,F,C,) | =F,,(C,_G,C, F,,C,_B,)C, | %54
 =F,,(C,!courtesy!=A,C, F,,C,G,C,) | (=F,,C,=F,C, F,,C,_G,C,) | =F,,C,!courtesy!=G,C, F,,C,_B,C, | %57
 =F,,C,=F,C, F,,C,F,C, | =F,,C,=F,C, F,,C,F,C, | =F,,C,=F,C, F,,C,F,C, | =F,,C,=F,C, F,,C,F,C, | %61
 =F,,C,=F,C, F,,C,F,C, | =F,,C,=F,C, F,,C,F,C, | [=F,A,]6 G,2 | [=F,A,]6 [C,G,]2- | %65
!ppp! [C,G,]4 [_D,=F,]4- | [D,F,]4 !^![=F,,,=F,,]4 | [=F,,,=F,,]2[K:treble] [C=F_A]2 z4 |] %68
[K:bass] [=F,,,=F,,]2[K:treble] [C=F_A]>[CFA] !fermata![CFA]2 z2 |] %69
V:4
 x2 | x8 | x8 | x4 x4 | x4 x2 D2 | [DG]2 ([GB][FA]) ([FA][EG]) ([EG][^DF]) | %6
 [^DF]2 (3.[^CE].[B,D].[CE] [DF] z ([EG][FA]) | G2 [GB]2 B2 B2 |[M:4/4] x4 x4 x2 | %9
[M:4/4] x2 x4 x4 | x10 |[M:5/4] x4 x2 z2 D2 |[M:5/4] x4 D4 D4 | (C4 D2) E4 x2 | A,2 x8 | %15
[M:5/4] x10 |[M:5/4] x10 | x8 | x11 | x8 |[M:4/4] x4 x4 | x4 x4 | x4 x4 | D8 | x4 x4 | x4 x4 | %26
 x4 x4 | x4 x2 =F2 | x4 x4 | x8 | x8 | x8 | x8 | x8 | x8 | x8 | x8 | x8 | x8 | x8 | %40
 (3C[I:staff +1]A,C,[I:staff -1] (3:2:2C[I:staff +1]A,(3:2:1C,[I:staff -1] (3C[I:staff +1]A,C, x2/3 (3:2:2A,C, | %41
[I:staff -1] x4 x4 | x4 x2 C2 | x4 x4 | x4 [Ac]2 x2 | x4 x4 | x4 x2 [Ac]2 | x4 x2 =FE | (D4 C4) | %49
 x4 x2 C2 | (D4 C4) | (=B,C) x2 x4 | x4 x4 | x4 x2 _B2 | x4 x4 | x4 x4 | !courtesy!=D4 C4 | %57
 =FC A2 _G2 !courtesy!=E2 | x4 x4 | x4 x4 | x4 x4 | x4 x4 | x4 x4 | x8 | x8 | x8 | x8 | x8 |] x8 |] %69
V:5
 x2 | x8 | x8 | x8 | x8 | x8 | x8 | x8 |[M:4/4] x10 |[M:4/4] x10 | x10 |[M:5/4] x4 x4 x2 | %12
[M:5/4] x4 x4 x4 | x4 z4 C2 x2 | x2 x8 |[M:5/4] x10 |[M:5/4] x10 | x8 | x11 | x8 |[M:4/4] x8 | x8 | %22
 x8 | x8 | x8 | x8 | x8 | x8 | x8 | x8 | x8 | x8 | x8 | x8 | x8 | x8 | x8 | x8 | x8 | x8 | x8 | %41
 x8 | x8 | x8 | x8 | x8 | x8 | x8 | x8 | x8 | x8 | x8 | x8 | x8 | x8 | x8 | x8 | x8 | x8 | x8 | %60
 x8 | x8 | x8 | x8 | x8 | x8 | x8 | x8 |] x8 |] %69
V:6
 x2 | x8 | x8 | x8 | x8 | x8 | x8 | x8 |[M:4/4] x10 |[M:4/4] x10 | x10 |[M:5/4] x10 |[M:5/4] x12 | %13
 x12 | x10 |[M:5/4] x10 |[M:5/4] x10 | x8 | x11 | x8 |[M:4/4] x4 x4 | x4 x4 | %22
 [C,,C,]2 [G,,,G,,]2 [C,,C,]2 [G,,,G,,]2 |{=A,} [C,,C,]2 [G,,,G,,]2 [C,,C,]2 [G,,,G,,]2 | %24
 [C,,C,]2 [G,,,G,,]2 x4 | x8 | x8 | x8 | x8 | x4 x4 | [C,,C,]2 [G,,,G,,]2 [C,,C,]2 [G,,,G,,]2 | %31
{!courtesy!=A,} [C,,C,]2 [G,,,G,,]2 [C,,C,]2 [G,,,G,,]2 | %32
 [C,,C,]2 [G,,,G,,]2 [C,,C,G,]2 [G,,,G,,]2 | [C,,C,]2 [G,,,G,,]2 [C,,C,]2 x2 | x8 | x8 | x8 | x8 | %38
 x8 | x8 | x4 (3:2:1x x (3:2:1x/4 x (3:2:1x/4 x | x4 x4 | x4 x4 | x4 =F,,C,G,C, | %44
 =F,,C,G,C, F,,C,G,C, | =F,,C, G,/=F,/E,/D,/ F,,C,F,G, | x4 x4 | x4 x4 | x8 | x8 | x8 | x8 | x8 | %53
 x8 | x8 | x8 | x8 | x8 | x8 | x8 | x8 | x8 | x8 | =F,,C,=F,C, F,,C,F,C, | =F,,C,=F,C, F,,C,F,(C, | %65
 u[=F,,,=F,,]4) u[F,,,F,,]4 | u[=F,,,=F,,]4 x4 | x2[K:treble] x2 x4 |] %68
[K:bass] x2[K:treble] x2 x4 |] %69

